packages/core/src/svgs/tokens/branded/DINGO.svg

<svg width="24" height="24" viewBox="0 0 24 24" fill="none" xmlns="http://www.w3.org/2000/svg">
<path d="M12 22C17.5229 22 22 17.5229 22 12C22 6.47714 17.5229 2 12 2C6.47714 2 2 6.47714 2 12C2 17.5229 6.47714 22 12 22Z" fill="#CB9E1E"/>
<path d="M4.9996 8.33542C4.14862 9.6251 3.36901 10.9603 2.66431 12.3355C3.46431 18.4649 6.55254 20.6648 7.99961 21.0001L6.99959 19.0002L6.66431 19.3355L6.3349 17.6648L5.9996 17.3354V16.3354L5.66431 15.6649L5.9996 14.6648L5.66431 14.3354L6.3349 13.6648V13.3354H7.33489L7.99961 13.0001L8.6643 13.3354V13.0001L9.33496 13.3354C9.66437 13.6648 11.6643 15.0001 12.6643 14.3354C13.4643 13.8001 12.1113 11.8883 11.3349 11.0001L11.9996 11.3354V11.0001L12.6643 11.3354V11.0001L13.3348 11.6648L13.9996 11.0001H14.6643C14.5526 11.1118 14.3349 11.5295 14.3349 12.3355C14.3349 13.1354 14.776 14.0001 14.9996 14.3354C15.529 13.5354 15.4466 11.5531 15.3349 10.6648C15.9996 8.00012 16.6644 4.00013 15.9996 3.66483C15.4702 3.40013 13.3348 5.11189 12.3349 6.00012H12.9997L13.3348 6.33542H13.9996L12.9997 8.00012C12.6115 7.47998 12.2766 6.9223 11.9996 6.33542H10.9996V7.66483C10.7761 7.44719 10.3349 6.60012 10.3349 5.00013C10.3349 3.40013 10.1114 3.00013 9.99955 3.00013C8.1349 2.73542 5.88783 6.44719 4.9996 8.33542Z" fill="#EBC46A"/>
<path d="M4.66481 9.33557L3.66479 10.3356V11.6651L4.00009 11.3356V12.0004L4.33539 13.0003L4.66481 11.3356L4.33539 11.0003L4.66481 10.3356H4.33539L4.66481 9.33557ZM6.00009 12.0004L5.33539 13.3356L6.00009 12.6651V13.0003L6.33539 12.6651V13.0003L7.00009 12.0004V12.3357L7.33539 11.3356L7.6648 11.6651L9.00009 10.0003L7.6648 10.665L7.00009 11.3356L6.6648 11.6651L6.33539 12.3357L6.00009 12.0004Z" fill="#CB9E1E"/>
<path d="M10.6646 10.6647L11.3352 11L11.9999 11.3353V11L12.6647 11.3353V11L13.3351 11.6647L13.9999 11H14.6646L14.9999 10.6647H14.6646L14.3352 9.99993V10.3352L13.9999 9.66462V9.99993L13.6646 9.33521L13.3351 9.66462L12.6647 8.66468V8.99996L12.3352 8.33527V9.33521L11.9999 8.99996V9.33521L11.3352 8.66468L11.6646 9.66462H10.9999L11.3352 10.3352H10.6646L11.3352 10.6647H10.6646ZM10.9999 11.3353C11.8 11.5999 11.9999 12.3353 11.9999 12.6647C11.7352 12.1352 10.7764 11.7823 10.3352 11.6647H10.6646L9.99986 11.3353C10.5294 11.3353 10.8882 11.553 10.9999 11.6647V11.3353ZM14.9999 11.6647C14.4705 11.9352 14.3352 12.2235 14.3352 12.3353L15.3352 12H14.9999L15.3352 11.6647H14.9999ZM3.33521 14.3353L3.66462 12.3353V13.6646L3.99992 13.3352V14.6647H4.33522L3.99992 16.3352V15.3353C3.99992 15.0646 3.77638 15.2177 3.66462 15.3353V14.3353H3.33521Z" fill="#F9DF9D"/>
<path fill-rule="evenodd" clip-rule="evenodd" d="M11.3353 21.3353C16.0765 21.3353 20 17.1999 20 12C20 6.79999 16.0765 2.6647 11.3353 2.6647C6.58822 2.6647 2.6647 6.79999 2.6647 12C2.6647 17.1999 6.58822 21.3353 11.3353 21.3353ZM11.3353 22C16.4882 22 20.6646 17.5236 20.6646 12C20.6646 6.47645 16.4882 2 11.3353 2C6.17646 2 2 6.47645 2 12C2 17.5236 6.17646 22 11.3353 22Z" fill="#F9DF9D"/>
<path d="M11.9996 11.3356L11.3349 11.0003C12.1113 11.8885 13.4643 13.8003 12.6643 14.3356C11.8643 14.865 10.1114 13.8886 9.33495 13.3356L8.6643 13.0002V13.3356L7.9996 13.0002L7.33489 13.3356H6.33489V13.665L5.66431 14.3356L5.99959 14.665L5.66431 15.665L5.99959 16.3355V17.3356L6.33489 17.665L6.6643 19.3357L6.99959 19.0003L7.9996 21.0003L11.6643 21.665C11.9996 21.4473 12.6643 20.8649 12.6643 20.3356C12.6643 19.8003 13.1114 19.4474 13.3348 19.3357C13.8644 19.6003 14.8879 19.4474 15.3349 19.3357C15.9996 19.3357 15.9996 18.3356 16.3349 17.3356C16.6644 16.3355 15.9996 16.0004 14.9996 14.3356C14.7068 13.8365 14.5254 13.2802 14.4675 12.7046C14.4097 12.129 14.4768 11.5475 14.6643 11.0003H13.9996L13.3348 11.665L12.6643 11.0003V11.3356L11.9996 11.0003V11.3356Z" fill="#F8F7DF"/>
<path d="M13.3356 15.3354L14.3357 17L14.0004 17.3353L13.3356 15.3354ZM15.0004 19.3354H15.3357V18.6648C14.0004 19.3354 13.6651 19.0001 12.6652 19.0001C11.6651 19.0001 10.3357 17.3353 10.0004 17.3353C9.73572 17.3353 10.7769 18.2177 11.3357 18.6648C10.7769 18.3353 9.60039 17.4647 9.33576 16.6647C9.00041 15.6648 8.66511 15.0001 7.3357 15.3354C6.0004 15.6648 7.00042 17 8.00041 17.6647C9.00041 18.3353 11.6651 18.6648 12.0004 19.3354C12.2651 19.8648 12.1122 20.8883 12.0004 21.3353C12.2239 21.2177 12.6652 20.8647 12.6652 20.3353C12.6652 19.8 13.1122 19.4471 13.3356 19.3354C14.1357 19.6 14.7768 19.4471 15.0004 19.3354ZM8.00041 20C7.7357 19.7353 7.66511 18.553 7.66511 18C7.80049 18.4841 8.02819 18.9376 8.3357 19.3354L8.66511 19.0001C8.66511 19.5295 9.55331 20.7766 10.0004 21.3353C9.21225 20.9425 8.52724 20.3704 8.00041 19.6648V20Z" fill="#DCD5B8"/>
<path d="M12.6648 10.665L13.0001 11.0003L13.3353 10.665L13.6647 11.0003L14 10.3356H13.6647V10.0003H13.3353L13.0001 9.66498V10.0003L12.3354 8.66504V10.3356L11.6648 10.665H12.6648Z" fill="#CDA01F"/>
<path d="M6.99988 6.00039C8.06459 3.8651 9.22341 3.55333 9.66465 3.66509C9.78228 3.55333 9.99983 3.60039 9.99983 4.66509C9.99983 6.00039 10.3351 7.33569 10.3351 8.00038C10.3351 8.66509 9.66466 9.0004 8.66459 9.33563C7.66459 9.66504 6.99988 10.6651 6.33518 11.0004C5.6646 11.3357 5.6646 8.66509 6.99988 6.00039ZM12.9999 8.00038C13.5293 6.6651 14.7763 5.22392 15.3352 4.66509C16.3999 5.20039 15.5529 8.44745 14.9999 10.0004C14.7351 9.20039 13.5528 8.33568 12.9999 8.00038ZM13.9998 17.3357C13.9998 16.8004 14.8882 16.665 15.3352 16.665C15.5529 16.665 16.0646 16.7357 16.3352 17.0003C16.6646 17.3357 15.6646 18.6651 15.3352 18.6651C14.9897 18.6419 14.6643 18.4945 14.4189 18.2502C14.1735 18.0059 14.0247 17.6811 13.9998 17.3357ZM10.6646 13.3356C10.1352 13.3356 9.78228 12.6652 9.66465 12.3357C9.87397 12.2391 10.1017 12.1892 10.3323 12.1892C10.5627 12.1892 10.7906 12.2391 10.9999 12.3357C11.6646 12.6652 11.6646 13.3356 11.6646 13.6651C11.6646 14.0004 11.3352 13.3356 10.6646 13.3356ZM14.9999 12.3357L14.3352 12.6652L14.6646 13.6651C14.9352 13.4004 14.9999 12.6652 14.9999 12.3357Z" fill="#604D25"/>
<path d="M7.66479 7.00012C7.66479 4.33541 9.00009 3.66482 9.66486 3.66482C9.78248 3.55306 10 3.53542 10 4.33541C10 5.33542 10.3353 6.66483 10.3353 8.00011C10.3353 9.06483 9.21774 9.11188 8.66479 9.00012V8.66482H8.0001V8.00011L7.66479 8.33541V7.00012ZM14.3354 7.33541C14.3354 6.53541 15.0001 5.21777 15.3354 4.66482C16.4001 4.93542 15.7765 7.66483 15.3354 9.00012L15.0001 8.66482L14.6648 8.33541C14.553 8.33541 14.3354 8.13542 14.3354 7.33541ZM16.0001 17.3354H14.3354C14.5531 17.3354 15.0001 17.4002 15.0001 17.6648C15.0001 17.9355 14.5531 17.7824 14.3354 17.6648C14.6001 18.4649 15.1118 18.2237 15.3354 18.0001C15.6 18.2649 15.8883 18.1118 16.0001 18.0001C15.7354 18.0001 15.6648 17.7765 15.6648 17.6648C15.9353 17.6648 16.0001 17.4471 16.0001 17.3354ZM10 12.6649C10 12.4001 10.2236 12.3355 10.3353 12.3355V13.0001C10.2177 13.0001 10 12.9354 10 12.6649ZM11.0001 13.3354C11.1118 13.3354 11.3354 13.2002 11.3354 12.6649C11.4471 13.0001 11.5354 13.6001 11.0001 13.3354ZM15.0001 12.6649H14.6648C14.6648 12.6649 14.606 13.3119 14.6648 13.3354C14.7296 13.359 15.0001 13.0001 15.0001 12.6649Z" fill="#9E7A2C"/>
<path d="M10.6644 12.3353H10.335V12.6647H10.6644V12.3353ZM14.6644 12.6647C14.5527 12.7824 14.3998 13.0647 14.6644 13.3352V12.6647Z" fill="#F8F7DF"/>
</svg>

<svg xmlns="http://www.w3.org/2000/svg" width="24" height="24" fill="none" viewBox="0 0 24 24">
    <path fill="#CB9E1E" d="M12 22c5.523 0 10-4.477 10-10S17.523 2 12 2 2 6.477 2 12s4.477 10 10 10"/>
    <path fill="#EBC46A" d="M5 8.335a42 42 0 0 0-2.336 4c.8 6.13 3.889 8.33 5.336 8.665l-1-2-.336.335-.33-1.67-.334-.33v-1l-.336-.67.336-1-.336-.33.67-.67v-.33h1L8 13l.664.335V13l.671.335c.33.33 2.33 1.665 3.33 1 .8-.535-.554-2.447-1.33-3.335l.665.335V11l.664.335V11l.67.665L14 11h.664c-.111.112-.33.53-.33 1.335 0 .8.442 1.665.666 2 .529-.8.447-2.782.335-3.67C16 8 16.665 4 16 3.665 15.47 3.4 13.335 5.112 12.335 6H13l.335.335H14L13 8a9.7 9.7 0 0 1-1-1.665h-1v1.33c-.224-.218-.665-1.065-.665-2.665S10.11 3 10 3c-1.865-.265-4.112 3.447-5 5.335"/>
    <path fill="#CB9E1E" d="m4.665 9.336-1 1v1.33l.335-.33V12l.335 1 .33-1.664-.33-.336.33-.664h-.33zM6 12l-.665 1.336.665-.67V13l.335-.335V13L7 12v.336l.335-1 .33.33L9 10l-1.335.665-.665.67-.335.33-.33.67z"/>
    <path fill="#F9DF9D" d="m10.665 10.665.67.335.665.335V11l.665.335V11l.67.665L14 11h.665l.335-.335h-.335l-.33-.665v.335L14 9.665V10l-.335-.665-.33.33-.67-1V9l-.33-.665v1L12 9v.335l-.665-.67.33 1H11l.335.67h-.67l.67.33zm.335.67c.8.265 1 1 1 1.33-.265-.53-1.224-.883-1.665-1h.33l-.665-.33c.53 0 .888.218 1 .33zm4 .33c-.53.27-.665.559-.665.67l1-.335H15l.335-.335zm-11.665 2.67.33-2v1.33l.335-.33v1.33h.335L4 16.335v-1c0-.27-.224-.117-.335 0v-1z"/>
    <path fill="#F9DF9D" fill-rule="evenodd" d="M11.335 21.335C16.076 21.335 20 17.2 20 12s-3.924-9.335-8.665-9.335c-4.747 0-8.67 4.135-8.67 9.335s3.923 9.335 8.67 9.335m0 .665c5.153 0 9.33-4.476 9.33-10s-4.177-10-9.33-10C6.176 2 2 6.476 2 12s4.176 10 9.335 10" clip-rule="evenodd"/>
    <path fill="#F8F7DF" d="M12 11.336 11.335 11c.776.889 2.13 2.8 1.33 3.336-.8.529-2.554-.447-3.33-1L8.665 13v.336L8 13l-.665.336h-1v.329l-.67.67.335.33-.336 1 .336.67v1l.335.33.33 1.67L7 19l1 2 3.664.665c.336-.218 1-.8 1-1.33 0-.535.447-.888.67-1 .53.265 1.554.112 2 0 .666 0 .666-1 1-2 .33-1-.334-1.335-1.334-3A4.02 4.02 0 0 1 14.664 11H14l-.665.665-.67-.665v.336L12 11z"/>
    <path fill="#DCD5B8" d="m13.336 15.335 1 1.665-.336.335zm1.664 4h.336v-.67c-1.336.67-1.67.335-2.67.335s-2.33-1.665-2.666-1.665c-.264 0 .777.883 1.336 1.33-.56-.33-1.736-1.2-2-2-.336-1-.67-1.665-2-1.33C6 15.665 7 17 8 17.665c1 .67 3.665 1 4 1.67.265.53.112 1.553 0 2 .224-.117.665-.47.665-1 0-.535.447-.888.67-1 .8.265 1.442.112 1.665 0M8 20c-.264-.265-.335-1.447-.335-2 .135.484.363.938.67 1.335l.33-.335c0 .53.888 1.777 1.335 2.335a5.6 5.6 0 0 1-2-1.67z"/>
    <path fill="#CDA01F" d="M12.665 10.665 13 11l.335-.335.33.335.335-.664h-.335V10h-.33L13 9.665V10l-.665-1.335v1.67l-.67.33z"/>
    <path fill="#604D25" d="M7 6c1.065-2.135 2.223-2.447 2.665-2.335.117-.112.335-.065.335 1 0 1.335.335 2.67.335 3.335s-.67 1-1.67 1.336c-1 .329-1.665 1.33-2.33 1.664-.67.336-.67-2.335.665-5m6 2c.53-1.335 1.776-2.776 2.335-3.335C16.4 5.2 15.553 8.447 15 10c-.265-.8-1.447-1.664-2-2m1 9.336c0-.536.888-.671 1.335-.671.218 0 .73.07 1 .335.33.336-.67 1.665-1 1.665A1.435 1.435 0 0 1 14 17.335m-3.335-4c-.53 0-.883-.67-1-1a1.6 1.6 0 0 1 1.335 0c.665.33.665 1 .665 1.33 0 .334-.33-.33-1-.33m4.335-1-.665.33.33 1c.27-.266.335-1 .335-1.33"/>
    <path fill="#9E7A2C" d="M7.665 7c0-2.665 1.335-3.335 2-3.335.117-.112.335-.13.335.67 0 1 .335 2.33.335 3.665 0 1.065-1.117 1.112-1.67 1v-.335H8V8l-.335.335zm6.67.335c0-.8.665-2.117 1-2.67 1.065.27.441 3 0 4.335L15 8.665l-.335-.33c-.112 0-.33-.2-.33-1m1.665 10h-1.665c.218 0 .665.065.665.33 0 .27-.447.117-.665 0 .265.8.777.559 1 .335.265.265.553.112.665 0-.265 0-.335-.224-.335-.335.27 0 .335-.218.335-.33m-6-4.67c0-.265.224-.33.335-.33V13c-.117 0-.335-.065-.335-.335m1 .67c.112 0 .335-.135.335-.67.112.335.2.935-.335.67m4-.67h-.335s-.059.647 0 .67c.065.024.335-.335.335-.67"/>
    <path fill="#F8F7DF" d="M10.664 12.335h-.329v.33h.33zm4 .33c-.111.117-.264.4 0 .67z"/>
</svg>
